!!!COM: John Williams
!!!OTL: Princess Leia's Theme
!!!GAW: Star Wars: Episode IV: A New Hope
!!!ODT: 1977
!!!OCL: Frank Lehman
!!!ENC: Claire Arthur
!!!ENC2: John McNamara
**kern	**harte	**harm	**cadence	**text
*clefG2	*	*	*	*
*k[f#c#g#d#]	*k[f#c#g#d#]	*k[f#c#g#d#]	*	*
*E:	*E:	*E:	*	*
*M4/4	*M4/4	*M4/4	*	*
*MM60	*MM60	*MM60	*	*
8B	.	.	.	.
=1	=1	=1	=1	=1
8BL	E:maj7/5	I7d	.	.
8g#J	.	.	.	.
[2g#	.	.	.	.
8g#L]	.	.	.	.
8g#J	.	.	.	.
=2	=2	=2	=2	=2
8aL	F#:min7(b5)/b5	iiom7c	.	.
16aL	.	.	.	.
16g#JJ	.	.	.	.
2f#	.	.	.	.
8r	.	.	.	.
8B	.	.	.	.
=3	=3	=3	=3	=3
8BL	E:maj7/5	I7d	.	.
8g#J	.	.	.	.
[2g#	.	.	.	.
8g#L]	.	.	.	.
8bJ	.	.	.	.
=4	=4	=4	=4	=4
8ccnL	F#:min7(b5)/b5	iiom7c	.	.
16ccL	.	.	.	.
16bJJ	.	.	.	.
2a	.	.	.	.
8r	.	.	.	.
8cn	.	.	.	.
=5	=5	=5	=5	=5
8cnL	F/3	-IIb=Ib	.	Tonally digressive mm. 5 to 8, interpreted here as tonicization of bII/E
8ccnJ	.	.	.	.
[2cc	.	.	.	.
8ccL]	.	.	.	.
8ccJ	.	.	.	.
=6	=6	=6	=6	=6
*F:	*F:	*F:	.	.
8ee-L	G-:maj(9)/3	-IIb	.	.
16dd-L	.	.	.	.
16ccnJJ	.	.	.	.
[2b-	.	.	.	.
8b-L]	.	.	.	.
8b-J	.	.	.	.
=7	=7	=7	=7	=7
8dd-L	G-/#4	?VM3D5m7m9	.	.
16ccnL	.	.	.	.
16b-JJ	.	.	.	.
[4a-	F:min/5	ic	.	.
8a-L]	.	.	.	.
16gnL	.	.	.	.
16a-JJ	.	.	.	.
8b-L	F:min/4	.	.	.
16a-L	F:min/b3	ib3	.	.
16b-JJ	.	.	.	.
=8	=8	=8	=8	=8
2ccn	C/5	Vc=-VIc	.	.
4.gn	.	.	.	.
8g	.	.	.	.
=9	=9	=9	=9	=9
*E:	*E:	*E:	.	.
8ccnL	F#:min9(b5)	iiom7m9	.	.
16bL	.	.	.	.
16aJJ	.	.	.	.
[4gn	.	.	.	.
8gL]	.	.	.	.
16f#L	.	.	.	.
16gJJ	.	.	.	.
8aL	.	.	.	.
16gL	.	.	.	.
16aJJ	.	.	.	.
=10	=10	=10	=10	=10
1b	B	V	//	.
=	=	=	=	=
*-	*-	*-	*-	*-
